src/assets/bin_icon.svg

<svg fill="#000000" viewBox="0 0 1024 1024" xmlns="http://www.w3.org/2000/svg"><g id="SVGRepo_bgCarrier" stroke-width="0"></g><g id="SVGRepo_tracerCarrier" stroke-linecap="round" stroke-linejoin="round"></g><g id="SVGRepo_iconCarrier"><path d="M831.24 280.772c5.657 0 10.24-4.583 10.24-10.24v-83.528c0-5.657-4.583-10.24-10.24-10.24H194.558a10.238 10.238 0 00-10.24 10.24v83.528c0 5.657 4.583 10.24 10.24 10.24H831.24zm0 40.96H194.558c-28.278 0-51.2-22.922-51.2-51.2v-83.528c0-28.278 22.922-51.2 51.2-51.2H831.24c28.278 0 51.2 22.922 51.2 51.2v83.528c0 28.278-22.922 51.2-51.2 51.2z"></path><path d="M806.809 304.688l-58.245 666.45c-.544 6.246-6.714 11.9-12.99 11.9H290.226c-6.276 0-12.447-5.654-12.99-11.893L218.99 304.688c-.985-11.268-10.917-19.604-22.185-18.619s-19.604 10.917-18.619 22.185l58.245 666.45c2.385 27.401 26.278 49.294 53.795 49.294h445.348c27.517 0 51.41-21.893 53.796-49.301l58.244-666.443c.985-11.268-7.351-21.201-18.619-22.185s-21.201 7.351-22.185 18.619zM422.02 155.082V51.3c0-5.726 4.601-10.342 10.24-10.342h161.28c5.639 0 10.24 4.617 10.24 10.342v103.782c0 11.311 9.169 20.48 20.48 20.48s20.48-9.169 20.48-20.48V51.3c0-28.316-22.908-51.302-51.2-51.302H432.26c-28.292 0-51.2 22.987-51.2 51.302v103.782c0 11.311 9.169 20.48 20.48 20.48s20.48-9.169 20.48-20.48z"></path><path d="M496.004 410.821v460.964c0 11.311 9.169 20.48 20.48 20.48s20.48-9.169 20.48-20.48V410.821c0-11.311-9.169-20.48-20.48-20.48s-20.48 9.169-20.48 20.48zm-192.435 1.767l39.936 460.964c.976 11.269 10.903 19.612 22.171 18.636s19.612-10.903 18.636-22.171l-39.936-460.964c-.976-11.269-10.903-19.612-22.171-18.636s-19.612 10.903-18.636 22.171zm377.856-3.535l-39.936 460.964c-.976 11.269 7.367 21.195 18.636 22.171s21.195-7.367 22.171-18.636l39.936-460.964c.976-11.269-7.367-21.195-18.636-22.171s-21.195 7.367-22.171 18.636z"></path></g></svg>

<svg width="1024" height="1024" viewBox="0 0 1024 1024" fill="none" xmlns="http://www.w3.org/2000/svg">
<g clip-path="url(#clip0_18_129)">
<path d="M831.24 280.772C836.897 280.772 841.48 276.189 841.48 270.532V187.004C841.48 181.347 836.897 176.764 831.24 176.764H194.558C193.213 176.764 191.881 177.029 190.639 177.543C189.396 178.058 188.267 178.812 187.317 179.763C186.366 180.714 185.611 181.843 185.097 183.085C184.582 184.328 184.318 185.659 184.318 187.004V270.532C184.318 276.189 188.901 280.772 194.558 280.772H831.24ZM831.24 321.732H194.558C166.28 321.732 143.358 298.81 143.358 270.532V187.004C143.358 158.726 166.28 135.804 194.558 135.804H831.24C859.518 135.804 882.44 158.726 882.44 187.004V270.532C882.44 298.81 859.518 321.732 831.24 321.732Z" fill="#D50303"/>
<path d="M806.809 304.688L748.564 971.138C748.02 977.384 741.85 983.038 735.574 983.038H290.226C283.95 983.038 277.779 977.384 277.236 971.145L218.99 304.688C218.005 293.42 208.073 285.084 196.805 286.069C185.537 287.054 177.201 296.986 178.186 308.254L236.431 974.704C238.816 1002.11 262.709 1024 290.226 1024H735.574C763.091 1024 786.984 1002.11 789.37 974.697L847.614 308.254C848.599 296.986 840.263 287.053 828.995 286.069C817.727 285.085 807.793 293.42 806.809 304.688ZM422.02 155.082V51.3C422.02 45.574 426.621 40.958 432.26 40.958H593.54C599.179 40.958 603.78 45.575 603.78 51.3V155.082C603.78 166.393 612.949 175.562 624.26 175.562C635.571 175.562 644.74 166.393 644.74 155.082V51.3C644.74 22.984 621.832 -0.00195312 593.54 -0.00195312H432.26C403.968 -0.00195312 381.06 22.985 381.06 51.3V155.082C381.06 166.393 390.229 175.562 401.54 175.562C412.851 175.562 422.02 166.393 422.02 155.082Z" fill="#D50303"/>
<path d="M496.004 410.821V871.785C496.004 883.096 505.173 892.265 516.484 892.265C527.795 892.265 536.964 883.096 536.964 871.785V410.821C536.964 399.51 527.795 390.341 516.484 390.341C505.173 390.341 496.004 399.51 496.004 410.821ZM303.569 412.588L343.505 873.552C344.481 884.821 354.408 893.164 365.676 892.188C376.944 891.212 385.288 881.285 384.312 870.017L344.376 409.053C343.4 397.784 333.473 389.441 322.205 390.417C310.937 391.393 302.593 401.32 303.569 412.588ZM681.425 409.053L641.489 870.017C640.513 881.286 648.856 891.212 660.125 892.188C671.394 893.164 681.32 884.821 682.296 873.552L722.232 412.588C723.208 401.319 714.865 391.393 703.596 390.417C692.327 389.441 682.401 397.784 681.425 409.053Z" fill="#D50303"/>
</g>
<defs>
<clipPath id="clip0_18_129">
<rect width="1024" height="1024" fill="white"/>
</clipPath>
</defs>
</svg>
